dist/images/customer/WSBCTC_Star.svg

<svg xmlns="http://www.w3.org/2000/svg" viewBox="343 -256.8 1645 1233.8" enable-background="new 343 -256.8 1645 1233.8"><style type="text/css">.st0{fill:#F2F2F2;} .st1{fill:#FFFFFF;} .st2{display:none;} .st3{display:inline;} .st4{opacity:0.83;} .st5{fill:#808080;} .st6{fill:none;}</style><g id="Inside_Player_Content"><path class="st0" d="M604.6-102.4l44.3 232.6c8.5-2.5 17.2-4.7 26-6.5l-70.3-226.1z"/><path class="st0" d="M1189.5 687.2l-195.7-133.2c-4.3 7.9-8.9 15.6-13.9 23l209.6 110.2z"/><path class="st0" d="M1080.3-169.9l-206.3 323.2c7.9 4.2 15.6 8.9 23 13.8l183.3-337z"/><path class="st0" d="M2321.4 17.5l-1304.5 311.4c2.6 8.6 4.8 17.2 6.6 26.1l1297.9-337.5z"/><path class="st0" d="M862.5 929.5l-44.3-232.5c-8.5 2.5-17.2 4.8-26 6.6l70.3 225.9z"/><path class="st0" d="M459.9 869.5l133.1-195.7c-7.9-4.3-15.6-8.9-23-13.8l-110.1 209.5z"/><path class="st0" d="M277.6 139.9l195.7 133.1c4.3-7.9 8.9-15.6 13.8-23l-209.5-110.1z"/><path class="st0" d="M217.6 542.5l232.6-44.3c-2.6-8.5-4.8-17.2-6.6-26l-226 70.3z"/><path class="st0" d="M874 153.3c-29.2-15.8-61.6-26.9-96.4-32.2-35.2-5.3-69.8-4.2-102.8 2.5l68.8 221.3 130.4-191.6z"/><path class="st0" d="M450.2 498.2c19.8 66.1 62.3 123.5 119.8 161.8l107.7-205.1-227.5 43.3z"/><path class="st0" d="M593 673.8c29.2 15.8 61.6 26.9 96.4 32.1 35.2 5.3 69.8 4.2 102.8-2.4l-68.9-221.3-130.3 191.6z"/><path class="st0" d="M979.9 577.1l-205-107.8 43.3 227.6c66.1-19.8 123.5-62.4 161.7-119.8z"/><path class="st0" d="M993.8 554c15.8-29.2 26.9-61.6 32.2-96.3 5.3-35.2 4.2-69.8-2.5-102.8l-221.3 68.8 191.6 130.3z"/><path class="st0" d="M473.3 273c-15.8 29.2-26.9 61.6-32.2 96.4-5.3 35.2-4.1 69.8 2.5 102.8l221.3-68.8-191.6-130.4z"/><path class="st0" d="M1016.9 328.9c-19.8-66.1-62.3-123.5-119.8-161.7l-107.8 205 227.6-43.3z"/><path class="st0" d="M648.9 130.2c-66.1 19.8-123.5 62.3-161.7 119.8l205.1 107.8-43.4-227.6z"/><path class="st1" d="M979.9 577.1c5-7.4 9.6-15.1 13.9-23l-191.6-130.3 221.3-68.8c-1.8-8.8-4-17.5-6.6-26.1l-227.6 43.3 107.8-205c-7.4-5-15.1-9.6-23-13.8l-130.4 191.5-68.8-221.3c-8.8 1.8-17.5 4-26 6.5l43.3 227.6-205-107.7c-4.9 7.4-9.6 15.1-13.8 23l191.6 130.3-221.4 68.9c1.8 8.8 4 17.5 6.6 26l227.6-43.3-107.8 205.1c7.4 4.9 15.1 9.6 23 13.8l130.3-191.6 68.9 221.3c8.8-1.8 17.5-4 26-6.6l-43.3-227.6 205 107.8z"/></g><polygon class="st5" points="1100,350.1 1100,295.6 1165.6,322.9 1231,350.1 1165.5,377.4 1100,404.6" id="Elements"/><rect x="348.9" y="-115.6" class="st6" width="1631.6" height="863.7"/><rect x="347" y="-250.8" class="st6" width="1641.5" height="64.3"/><rect x="343" y="-256" class="st6" width="1645" height="1233"/><rect x="343" y="-256" class="st6" width="1645" height="1233"/><rect x="343" y="-256" class="st6" width="1645" height="1233"/><rect x="346" y="-252" class="st6" width="1642" height="1226"/><rect x="346" y="-252" class="st6" width="1642" height="1226"/><rect x="346" y="-252" class="st6" width="1642" height="1226"/><rect x="343" y="-256" class="st6" width="1645" height="1233"/><rect x="343" y="-256" class="st6" width="1645" height="1233"/><rect x="343" y="-256" class="st6" width="1645" height="1233"/><rect x="343" y="-256" class="st6" width="1645" height="1233"/><rect x="343" y="-256" class="st6" width="1645" height="1233"/><rect x="346" y="-252" class="st6" width="1642" height="1226"/><rect x="346" y="-252" class="st6" width="1642" height="1226"/><rect x="343" y="-256" class="st6" width="1645" height="1233"/></svg>

<?xml version="1.0" encoding="utf-8"?>
<!-- Generator: Adobe Illustrator 19.1.0, SVG Export Plug-In . SVG Version: 6.00 Build 0)  -->
<svg version="1.1" id="Layer_1" xmlns="http://www.w3.org/2000/svg" xmlns:xlink="http://www.w3.org/1999/xlink" x="0px" y="0px"
	 viewBox="343 -256.8 1645 1233.8" style="enable-background:new 343 -256.8 1645 1233.8;" xml:space="preserve">
<style type="text/css">
	.st0{fill:#F2F2F2;}
	.st1{fill:#FFFFFF;}
	.st2{display:none;}
	.st3{display:inline;}
	.st4{opacity:0.83;}
	.st5{fill:#808080;}
	.st6{fill:none;}
</style>
<g id="Player_Elements">
</g>
<g id="Inside_Player_Content">
	<path class="st0" d="M604.6-102.4l44.3,232.6c8.5-2.5,17.2-4.7,26-6.5L604.6-102.4z"/>
	<path class="st0" d="M1189.5,687.2L993.8,554c-4.3,7.9-8.9,15.6-13.9,23L1189.5,687.2z"/>
	<path class="st0" d="M1080.3-169.9L874,153.3c7.9,4.2,15.6,8.9,23,13.8L1080.3-169.9z"/>
	<path class="st0" d="M2321.4,17.5L1016.9,328.9c2.6,8.6,4.8,17.2,6.6,26.1L2321.4,17.5z"/>
	<path class="st0" d="M862.5,929.5L818.2,697c-8.5,2.5-17.2,4.8-26,6.6L862.5,929.5z"/>
	<path class="st0" d="M459.9,869.5L593,673.8c-7.9-4.3-15.6-8.9-23-13.8L459.9,869.5z"/>
	<path class="st0" d="M277.6,139.9L473.3,273c4.3-7.9,8.9-15.6,13.8-23L277.6,139.9z"/>
	<path class="st0" d="M217.6,542.5l232.6-44.3c-2.6-8.5-4.8-17.2-6.6-26L217.6,542.5z"/>
	<path class="st0" d="M874,153.3c-29.2-15.8-61.6-26.9-96.4-32.2c-35.2-5.3-69.8-4.2-102.8,2.5l68.8,221.3L874,153.3z"/>
	<path class="st0" d="M450.2,498.2C470,564.3,512.5,621.7,570,660l107.7-205.1L450.2,498.2z"/>
	<path class="st0" d="M593,673.8c29.2,15.8,61.6,26.9,96.4,32.1c35.2,5.3,69.8,4.2,102.8-2.4l-68.9-221.3L593,673.8z"/>
	<path class="st0" d="M979.9,577.1l-205-107.8l43.3,227.6C884.3,677.1,941.7,634.5,979.9,577.1z"/>
	<path class="st0" d="M993.8,554c15.8-29.2,26.9-61.6,32.2-96.3c5.3-35.2,4.2-69.8-2.5-102.8l-221.3,68.8L993.8,554z"/>
	<path class="st0" d="M473.3,273c-15.8,29.2-26.9,61.6-32.2,96.4c-5.3,35.2-4.1,69.8,2.5,102.8l221.3-68.8L473.3,273z"/>
	<path class="st0" d="M1016.9,328.9c-19.8-66.1-62.3-123.5-119.8-161.7l-107.8,205L1016.9,328.9z"/>
	<path class="st0" d="M648.9,130.2C582.8,150,525.4,192.5,487.2,250l205.1,107.8L648.9,130.2z"/>
	<path class="st1" d="M979.9,577.1c5-7.4,9.6-15.1,13.9-23L802.2,423.8l221.3-68.8c-1.8-8.8-4-17.5-6.6-26.1l-227.6,43.3l107.8-205
		c-7.4-5-15.1-9.6-23-13.8L743.7,344.9l-68.8-221.3c-8.8,1.8-17.5,4-26,6.5l43.3,227.6L487.2,250c-4.9,7.4-9.6,15.1-13.8,23
		L665,403.3l-221.4,68.9c1.8,8.8,4,17.5,6.6,26l227.6-43.3L570,660c7.4,4.9,15.1,9.6,23,13.8l130.3-191.6l68.9,221.3
		c8.8-1.8,17.5-4,26-6.6l-43.3-227.6L979.9,577.1z"/>
</g>
<g id="Elements" class="st2">
	<g class="st3">
		<g>
			<g>
				<polygon class="st5" points="1100,350.1 1100,295.6 1165.6,322.9 1231,350.1 1165.5,377.4 1100,404.6 				"/>
			</g>
		</g>
	</g>
</g>
<rect x="348.9" y="-115.6" class="st6" width="1631.6" height="863.7"/>
<rect x="347" y="-250.8" class="st6" width="1641.5" height="64.3"/>
<rect x="343" y="-256" class="st6" width="1645" height="1233"/>
<rect x="343" y="-256" class="st6" width="1645" height="1233"/>
<rect x="343" y="-256" class="st6" width="1645" height="1233"/>
<rect x="346" y="-252" class="st6" width="1642" height="1226"/>
<rect x="346" y="-252" class="st6" width="1642" height="1226"/>
<rect x="346" y="-252" class="st6" width="1642" height="1226"/>
<rect x="343" y="-256" class="st6" width="1645" height="1233"/>
<rect x="343" y="-256" class="st6" width="1645" height="1233"/>
<rect x="343" y="-256" class="st6" width="1645" height="1233"/>
<rect x="343" y="-256" class="st6" width="1645" height="1233"/>
<rect x="343" y="-256" class="st6" width="1645" height="1233"/>
<rect x="346" y="-252" class="st6" width="1642" height="1226"/>
<rect x="346" y="-252" class="st6" width="1642" height="1226"/>
<rect x="343" y="-256" class="st6" width="1645" height="1233"/>
</svg>
